X:3
T:Tommy Peoples' Reel
S:Bill Reeder  irtrad-l 2001-11-1
N:Tommy says he didn't write this one.
R:reel
M:C|
L:1/8
K:G
"G"G2BG "C"cG"G"BG|"D"AD~D2 "D"FGAF|"G"G2BG "C"cG"G"BG|"D"Addc "G"BGGD|
"G"G2BG "C"cG"G"BG|"D"AD~D2 "D"FGAF|"G"G2BG "C"cG"G"BG|"D"A2dc "G"BGG2||
"G"g2dg "G"Bgdg|"G"g2dg "Am"eaaf|"G"g2dg "G"BgdB|"Am"cAdc "G"BGG2:|
